src/lib/packages/icons/src/assets/line/clipboard-list-check.svg

<svg width="24" height="24" viewBox="0 0 24 24" fill="none" xmlns="http://www.w3.org/2000/svg">
<path d="M17 4.25H16.73C16.633 2.996 15.821 2.25 14.5 2.25H9.5C8.179 2.25 7.36702 2.996 7.27002 4.25H7C4.582 4.25 3.25 5.582 3.25 8V18C3.25 20.418 4.582 21.75 7 21.75H17C19.418 21.75 20.75 20.418 20.75 18V8C20.75 5.582 19.418 4.25 17 4.25ZM8.75 4.5C8.75 3.911 8.911 3.75 9.5 3.75H14.5C15.089 3.75 15.25 3.911 15.25 4.5V5.5C15.25 6.089 15.089 6.25 14.5 6.25H9.5C8.911 6.25 8.75 6.089 8.75 5.5V4.5ZM19.25 18C19.25 19.577 18.577 20.25 17 20.25H7C5.423 20.25 4.75 19.577 4.75 18V8C4.75 6.423 5.423 5.75 7 5.75H7.27002C7.36702 7.004 8.179 7.75 9.5 7.75H14.5C15.821 7.75 16.633 7.004 16.73 5.75H17C18.577 5.75 19.25 6.423 19.25 8V18ZM17.25 12C17.25 12.414 16.914 12.75 16.5 12.75H12.5C12.086 12.75 11.75 12.414 11.75 12C11.75 11.586 12.086 11.25 12.5 11.25H16.5C16.914 11.25 17.25 11.586 17.25 12ZM17.25 16C17.25 16.414 16.914 16.75 16.5 16.75H12.5C12.086 16.75 11.75 16.414 11.75 16C11.75 15.586 12.086 15.25 12.5 15.25H16.5C16.914 15.25 17.25 15.586 17.25 16ZM10.03 10.803C10.323 11.096 10.323 11.571 10.03 11.864L8.69702 13.197C8.55602 13.338 8.36599 13.417 8.16699 13.417C7.96799 13.417 7.77696 13.338 7.63696 13.198L6.96997 12.531C6.67697 12.238 6.67697 11.763 6.96997 11.47C7.26297 11.177 7.73801 11.177 8.03101 11.47L8.16797 11.607L8.97095 10.804C9.26295 10.51 9.73703 10.51 10.03 10.803ZM10.03 14.803C10.323 15.096 10.323 15.571 10.03 15.864L8.69702 17.197C8.55602 17.338 8.36599 17.417 8.16699 17.417C7.96799 17.417 7.77696 17.338 7.63696 17.198L6.96997 16.531C6.67697 16.238 6.67697 15.763 6.96997 15.47C7.26297 15.177 7.73801 15.177 8.03101 15.47L8.16797 15.607L8.97095 14.804C9.26295 14.51 9.73703 14.51 10.03 14.803Z" fill="currentColor"/>
</svg>

<svg xmlns="http://www.w3.org/2000/svg" width="24" height="24" fill="none"><path fill="currentColor" d="M17 4.25h-.27c-.097-1.254-.909-2-2.23-2h-5c-1.321 0-2.133.746-2.23 2H7C4.582 4.25 3.25 5.582 3.25 8v10c0 2.418 1.332 3.75 3.75 3.75h10c2.418 0 3.75-1.332 3.75-3.75V8c0-2.418-1.332-3.75-3.75-3.75Zm-8.25.25c0-.589.161-.75.75-.75h5c.589 0 .75.161.75.75v1c0 .589-.161.75-.75.75h-5c-.589 0-.75-.161-.75-.75v-1ZM19.25 18c0 1.577-.673 2.25-2.25 2.25H7c-1.577 0-2.25-.673-2.25-2.25V8c0-1.577.673-2.25 2.25-2.25h.27c.097 1.254.909 2 2.23 2h5c1.321 0 2.133-.746 2.23-2H17c1.577 0 2.25.673 2.25 2.25v10Zm-2-6a.75.75 0 0 1-.75.75h-4a.75.75 0 0 1 0-1.5h4a.75.75 0 0 1 .75.75Zm0 4a.75.75 0 0 1-.75.75h-4a.75.75 0 0 1 0-1.5h4a.75.75 0 0 1 .75.75Zm-7.22-5.197a.75.75 0 0 1 0 1.061l-1.333 1.333a.749.749 0 0 1-1.06.001l-.667-.667a.75.75 0 1 1 1.061-1.061l.137.137.803-.803a.747.747 0 0 1 1.059-.001Zm0 4a.75.75 0 0 1 0 1.061l-1.333 1.333a.749.749 0 0 1-1.06.001l-.667-.667a.75.75 0 1 1 1.061-1.061l.137.137.803-.803a.747.747 0 0 1 1.059-.001Z"/></svg>
